packages/devextreme-scss/images/icons/generic/today.svg

<!-- Generated by IcoMoon.io -->
<svg version="1.1" xmlns="http://www.w3.org/2000/svg" width="18" height="18" viewBox="0 0 18 18">
<path d="M7 8h4v4h-4v-4zM10 9h-2v2h2v-2z"></path>
<path d="M6 1h-2v1c-1.105 0-2 0.895-2 2v10c0 1.105 0.895 2 2 2h10c1.105 0 2-0.895 2-2v-10c0-1.105-0.895-2-2-2v-1h-2v1h-6v-1zM14 14h-10v-8h10v8z"></path>
</svg>

<svg width="18" height="18" viewBox="0 0 18 18" xmlns="http://www.w3.org/2000/svg">
<title>today</title>
<path d="M7 8H11V12H7V8ZM10 9H8V11H10V9Z"></path>
<path d="M6 1H4V2C2.895 2 2 2.895 2 4V14C2 15.105 2.895 16 4 16H14C15.105 16 16 15.105 16 14V4C16 2.895 15.105 2 14 2V1H12V2H6V1ZM14 14H4V6H14V14Z"></path>
</svg>
